pics/4.sccsaf.svg

<?xml version="1.0" encoding="UTF-8" standalone="no"?>
<svg
   width="250"
   zoomAndPan="magnify"
   viewBox="0 0 187.5 374.999991"
   height="500"
   preserveAspectRatio="xMidYMid meet"
   version="1.0"
   id="svg19"
   sodipodi:docname="4.sccsaf.svg"
   inkscape:version="1.4 (e7c3feb1, 2024-10-09)"
   xmlns:inkscape="http://www.inkscape.org/namespaces/inkscape"
   xmlns:sodipodi="http://sodipodi.sourceforge.net/DTD/sodipodi-0.dtd"
   xmlns="http://www.w3.org/2000/svg"
   xmlns:svg="http://www.w3.org/2000/svg">
  <sodipodi:namedview
     id="namedview19"
     pagecolor="#ffffff"
     bordercolor="#000000"
     borderopacity="0.25"
     inkscape:showpageshadow="2"
     inkscape:pageopacity="0.0"
     inkscape:pagecheckerboard="0"
     inkscape:deskcolor="#d1d1d1"
     inkscape:zoom="0.642654"
     inkscape:cx="-17.894544"
     inkscape:cy="320.54574"
     inkscape:window-width="1104"
     inkscape:window-height="567"
     inkscape:window-x="1787"
     inkscape:window-y="287"
     inkscape:window-maximized="0"
     inkscape:current-layer="svg19" />
  <defs
     id="defs9">
    <clipPath
       id="dda8d76264">
      <path
         d="M 0 0.5 L 187 0.5 L 187 374.5 L 0 374.5 Z M 0 0.5 "
         clip-rule="nonzero"
         id="path1" />
    </clipPath>
    <clipPath
       id="9802aa5a2e">
      <path
         d="M 75.265625 0.546875 L 160 0.546875 L 160 188.246094 L 75.265625 188.246094 Z M 75.265625 0.546875 "
         clip-rule="nonzero"
         id="path2" />
    </clipPath>
    <clipPath
       id="dad5b9945b">
      <path
         d="M 90 0.546875 L 176 0.546875 L 176 188.246094 L 90 188.246094 Z M 90 0.546875 "
         clip-rule="nonzero"
         id="path3" />
    </clipPath>
    <clipPath
       id="5fa17d8825">
      <path
         d="M 105 0.546875 L 187 0.546875 L 187 188.246094 L 105 188.246094 Z M 105 0.546875 "
         clip-rule="nonzero"
         id="path4" />
    </clipPath>
    <clipPath
       id="8915e9e3ae">
      <path
         d="M 120 0.546875 L 187 0.546875 L 187 188.246094 L 120 188.246094 Z M 120 0.546875 "
         clip-rule="nonzero"
         id="path5" />
    </clipPath>
    <clipPath
       id="89a63ec344">
      <path
         d="M 0.339844 187.546875 L 85 187.546875 L 85 374.5 L 0.339844 374.5 Z M 0.339844 187.546875 "
         clip-rule="nonzero"
         id="path6" />
    </clipPath>
    <clipPath
       id="75477edf78">
      <path
         d="M 15 187.546875 L 100 187.546875 L 100 374.5 L 15 374.5 Z M 15 187.546875 "
         clip-rule="nonzero"
         id="path7" />
    </clipPath>
    <clipPath
       id="628f314ca1">
      <path
         d="M 30 187.546875 L 115 187.546875 L 115 374.5 L 30 374.5 Z M 30 187.546875 "
         clip-rule="nonzero"
         id="path8" />
    </clipPath>
    <clipPath
       id="459cf9cb8f">
      <path
         d="M 45 187.546875 L 129.40625 187.546875 L 129.40625 374.5 L 45 374.5 Z M 45 187.546875 "
         clip-rule="nonzero"
         id="path9" />
    </clipPath>
  </defs>
  <g
     clip-path="url(#9802aa5a2e)"
     id="g12"
     transform="matrix(1,0,0,1.03814,0,-7.1782216)">
    <path
       fill="#006434"
       d="m 150.43359,0.601562 -0.043,48.660157 c 0.004,2.796875 -1.07421,5.414062 -3.04296,7.382812 -1.96485,1.972657 -4.58204,3.054688 -7.36719,3.054688 h -2.3086 c -16.64843,0 -32.30468,6.476562 -44.085932,18.238281 -11.78125,11.757812 -18.289063,27.39844 -18.320313,44.04688 v 66.22265 h 9.382813 l -0.0039,-66.21484 C 84.703125,92.820312 108.48828,69.082031 137.67187,69.082031 h 2.3086 c 5.29297,0 10.26562,-2.0625 14.00781,-5.808593 3.73828,-3.746094 5.79297,-8.726563 5.78125,-14.015626 l 0.043,-48.648437 z m 0,0"
       fill-opacity="1"
       fill-rule="nonzero"
       id="path12" />
  </g>
  <g
     clip-path="url(#dad5b9945b)"
     id="g13"
     transform="matrix(1,0,0,1.0312029,0,-5.8726013)">
    <path
       fill="#c0c0c0"
       d="m 165.73828,0.585938 -0.20312,48.886718 c -0.0508,13.917969 -11.41407,25.234375 -25.32813,25.234375 h -0.98047 c -26.92578,0 -48.874998,21.90625 -48.933591,48.835939 l -0.0039,64.66406 h 9.378907 l 0.0039,-64.65625 c 0.04687,-21.7539 17.792965,-39.460936 39.554685,-39.460936 h 0.98047 c 19.07031,0 34.63672,-15.515625 34.70703,-34.582032 L 175.12109,0.625 Z m 0,0"
       fill-opacity="1"
       fill-rule="nonzero"
       id="path13" />
  </g>
  <g
     clip-path="url(#5fa17d8825)"
     id="g14"
     transform="matrix(1,0,0,1.034672,0,-6.525791)">
    <path
       fill="#e7e7e7"
       d="m 189.91016,0.605469 -9.38282,0.003906 0.0117,48.613281 c 0.0391,10.816406 -4.13672,20.976563 -11.76172,28.628906 -7.625,7.652344 -17.76953,11.863282 -28.57031,11.863282 -19.03906,0 -34.58203,15.492186 -34.64453,34.531246 l -0.0977,63.95313 9.38282,0.0156 0.0977,-63.94531 c 0.043,-13.8789 11.37891,-25.171874 25.26172,-25.171874 13.3125,0 25.82031,-5.195312 35.21484,-14.625 9.39844,-9.429687 14.54688,-21.957031 14.5,-35.265625 z m 0,0"
       fill-opacity="1"
       fill-rule="nonzero"
       id="path14" />
  </g>
  <g
     clip-path="url(#8915e9e3ae)"
     id="g15"
     transform="matrix(1,0,0,1.1144153,0,-15.029864)">
    <path
       fill="#ff8200"
       d="m 195.64453,0.601562 -0.043,48.667969 c 0.0273,14.816407 -5.71875,28.734375 -16.17578,39.210938 -10.45703,10.476562 -24.36328,16.242191 -39.16797,16.242191 -10.79297,0 -19.60156,8.78125 -19.64062,19.57422 l -0.125,63.89843 9.3789,0.0195 0.125,-63.89062 c 0.0195,-5.63281 4.625,-10.21875 10.26563,-10.21875 17.30859,0 33.57422,-6.74609 45.80469,-19.000001 12.22656,-12.25 18.94531,-28.53125 18.91406,-45.839844 l 0.043,-48.65625 z m 0,0"
       fill-opacity="1"
       fill-rule="nonzero"
       id="path15" />
  </g>
  <g
     clip-path="url(#89a63ec344)"
     id="g16"
     transform="matrix(1,0,0,1.0208828,0,-3.9177253)">
    <path
       fill="#006434"
       d="M 75.167969,187.60547 75.125,236.26172 c 0.0078,2.79687 -1.074219,5.41406 -3.039062,7.38672 -1.96875,1.96875 -4.585938,3.05468 -7.367188,3.05468 h -2.3125 c -16.644531,0 -32.300781,6.47657 -44.085938,18.23438 C 6.539062,276.69531 0.03125,292.33984 0,308.98437 l 0.00390625,66.22266 H 9.382812 L 9.378906,308.99219 C 9.4375,279.82031 33.226562,256.08203 62.40625,256.08203 h 2.3125 c 5.292969,0 10.265625,-2.0625 14.003906,-5.80859 3.738282,-3.7461 5.792969,-8.72266 5.785156,-14.01563 l 0.03906,-48.64453 z m 0,0"
       fill-opacity="1"
       fill-rule="nonzero"
       id="path16" />
  </g>
  <g
     clip-path="url(#75477edf78)"
     id="g17"
     transform="matrix(1,0,0,1.0313216,0,-5.8756072)">
    <path
       fill="#c0c0c0"
       d="m 90.472656,187.58984 -0.203125,48.88282 c -0.05078,13.91796 -11.410156,25.23828 -25.324219,25.23828 h -0.980468 c -26.929688,0 -48.878906,21.90625 -48.9375,48.83203 l -0.0039,64.66406 h 9.378906 l 0.0078,-64.65625 c 0.04297,-21.75391 17.789063,-39.46094 39.554688,-39.46094 h 0.980468 c 19.066407,0 34.636719,-15.51172 34.703126,-34.57812 l 0.207031,-48.88281 z m 0,0"
       fill-opacity="1"
       fill-rule="nonzero"
       id="path17" />
  </g>
  <g
     clip-path="url(#628f314ca1)"
     id="g18"
     transform="matrix(1,0,0,1.0278437,0,-5.2236337)">
    <path
       fill="#e7e7e7"
       d="m 114.64453,187.60547 -9.3789,0.004 0.0117,48.61329 c 0.0352,10.8164 -4.14062,20.98046 -11.765621,28.6289 -7.621094,7.65235 -17.769531,11.86719 -28.570313,11.86719 -19.039062,0 -34.578125,15.48828 -34.640625,34.52734 l -0.09766,63.95313 9.378906,0.0156 0.09766,-63.94531 c 0.04687,-13.875 11.378906,-25.17187 25.261718,-25.17187 13.3125,0 25.820313,-5.19532 35.218754,-14.625 9.39453,-9.42969 14.54297,-21.95313 14.49609,-35.26563 z m 0,0"
       fill-opacity="1"
       fill-rule="nonzero"
       id="path18" />
  </g>
  <g
     clip-path="url(#459cf9cb8f)"
     id="g19"
     transform="translate(0,5.2038385)">
    <path
       fill="#ff8200"
       d="m 120.37891,187.60547 -0.043,48.66797 c 0.0273,14.8125 -5.71485,28.73437 -16.17188,39.20703 -10.457029,10.47656 -24.367185,16.24609 -39.167966,16.24609 -10.792969,0 -19.605469,8.78125 -19.644532,19.57031 l -0.125,63.90235 9.378907,0.0156 0.125,-63.89062 c 0.02344,-5.63281 4.625,-10.21875 10.265625,-10.21875 17.308594,0 33.578125,-6.7461 45.804686,-18.9961 12.23047,-12.2539 18.94531,-28.53125 18.91797,-45.83984 l 0.0391,-48.65625 z m 0,0"
       fill-opacity="1"
       fill-rule="nonzero"
       id="path19" />
  </g>
</svg>

<svg xmlns="http://www.w3.org/2000/svg" xmlns:xlink="http://www.w3.org/1999/xlink" width="250" zoomAndPan="magnify" viewBox="0 0 187.5 374.999991" height="500" preserveAspectRatio="xMidYMid meet" version="1.0"><defs><clipPath id="dda8d76264"><path d="M 0 0.5 L 187 0.5 L 187 374.5 L 0 374.5 Z M 0 0.5 " clip-rule="nonzero"/></clipPath><clipPath id="9802aa5a2e"><path d="M 75.265625 0.546875 L 160 0.546875 L 160 188.246094 L 75.265625 188.246094 Z M 75.265625 0.546875 " clip-rule="nonzero"/></clipPath><clipPath id="dad5b9945b"><path d="M 90 0.546875 L 176 0.546875 L 176 188.246094 L 90 188.246094 Z M 90 0.546875 " clip-rule="nonzero"/></clipPath><clipPath id="5fa17d8825"><path d="M 105 0.546875 L 187 0.546875 L 187 188.246094 L 105 188.246094 Z M 105 0.546875 " clip-rule="nonzero"/></clipPath><clipPath id="8915e9e3ae"><path d="M 120 0.546875 L 187 0.546875 L 187 188.246094 L 120 188.246094 Z M 120 0.546875 " clip-rule="nonzero"/></clipPath><clipPath id="89a63ec344"><path d="M 0.339844 187.546875 L 85 187.546875 L 85 374.5 L 0.339844 374.5 Z M 0.339844 187.546875 " clip-rule="nonzero"/></clipPath><clipPath id="75477edf78"><path d="M 15 187.546875 L 100 187.546875 L 100 374.5 L 15 374.5 Z M 15 187.546875 " clip-rule="nonzero"/></clipPath><clipPath id="628f314ca1"><path d="M 30 187.546875 L 115 187.546875 L 115 374.5 L 30 374.5 Z M 30 187.546875 " clip-rule="nonzero"/></clipPath><clipPath id="459cf9cb8f"><path d="M 45 187.546875 L 129.40625 187.546875 L 129.40625 374.5 L 45 374.5 Z M 45 187.546875 " clip-rule="nonzero"/></clipPath></defs><g clip-path="url(#dda8d76264)"><path fill="#ffffff" d="M 0 0.5 L 187 0.5 L 187 374.5 L 0 374.5 Z M 0 0.5 " fill-opacity="1" fill-rule="nonzero"/><path fill="#ffffff" d="M 0 0.5 L 187 0.5 L 187 374.5 L 0 374.5 Z M 0 0.5 " fill-opacity="1" fill-rule="nonzero"/></g><g clip-path="url(#9802aa5a2e)"><path fill="#006434" d="M 150.433594 0.601562 L 150.390625 49.261719 C 150.394531 52.058594 149.316406 54.675781 147.347656 56.644531 C 145.382812 58.617188 142.765625 59.699219 139.980469 59.699219 L 137.671875 59.699219 C 121.023438 59.699219 105.367188 66.175781 93.585938 77.9375 C 81.804688 89.695312 75.296875 105.335938 75.265625 121.984375 L 75.265625 188.207031 L 84.648438 188.207031 L 84.644531 121.992188 C 84.703125 92.820312 108.488281 69.082031 137.671875 69.082031 L 139.980469 69.082031 C 145.273438 69.082031 150.246094 67.019531 153.988281 63.273438 C 157.726562 59.527344 159.78125 54.546875 159.769531 49.257812 L 159.8125 0.609375 Z M 150.433594 0.601562 " fill-opacity="1" fill-rule="nonzero"/></g><g clip-path="url(#dad5b9945b)"><path fill="#c0c0c0" d="M 165.738281 0.585938 L 165.535156 49.472656 C 165.484375 63.390625 154.121094 74.707031 140.207031 74.707031 L 139.226562 74.707031 C 112.300781 74.707031 90.351562 96.613281 90.292969 123.542969 L 90.289062 188.207031 L 99.667969 188.207031 L 99.671875 123.550781 C 99.71875 101.796875 117.464844 84.089844 139.226562 84.089844 L 140.207031 84.089844 C 159.277344 84.089844 174.84375 68.574219 174.914062 49.507812 L 175.121094 0.625 Z M 165.738281 0.585938 " fill-opacity="1" fill-rule="nonzero"/></g><g clip-path="url(#5fa17d8825)"><path fill="#e7e7e7" d="M 189.910156 0.605469 L 180.527344 0.609375 L 180.539062 49.222656 C 180.578125 60.039062 176.402344 70.199219 168.777344 77.851562 C 161.152344 85.503906 151.007812 89.714844 140.207031 89.714844 C 121.167969 89.714844 105.625 105.207031 105.5625 124.246094 L 105.464844 188.199219 L 114.847656 188.214844 L 114.945312 124.269531 C 114.988281 110.390625 126.324219 99.097656 140.207031 99.097656 C 153.519531 99.097656 166.027344 93.902344 175.421875 84.472656 C 184.820312 75.042969 189.96875 62.515625 189.921875 49.207031 Z M 189.910156 0.605469 " fill-opacity="1" fill-rule="nonzero"/></g><g clip-path="url(#8915e9e3ae)"><path fill="#ff8200" d="M 195.644531 0.601562 L 195.601562 49.269531 C 195.628906 64.085938 189.882812 78.003906 179.425781 88.480469 C 168.96875 98.957031 155.0625 104.722656 140.257812 104.722656 C 129.464844 104.722656 120.65625 113.503906 120.617188 124.296875 L 120.492188 188.195312 L 129.871094 188.214844 L 129.996094 124.324219 C 130.015625 118.691406 134.621094 114.105469 140.261719 114.105469 C 157.570312 114.105469 173.835938 107.359375 186.066406 95.105469 C 198.292969 82.855469 205.011719 66.574219 204.980469 49.265625 L 205.023438 0.609375 Z M 195.644531 0.601562 " fill-opacity="1" fill-rule="nonzero"/></g><g clip-path="url(#89a63ec344)"><path fill="#006434" d="M 75.167969 187.605469 L 75.125 236.261719 C 75.132812 239.058594 74.050781 241.675781 72.085938 243.648438 C 70.117188 245.617188 67.5 246.703125 64.71875 246.703125 L 62.40625 246.703125 C 45.761719 246.703125 30.105469 253.179688 18.320312 264.9375 C 6.539062 276.695312 0.03125 292.339844 0 308.984375 L 0.00390625 375.207031 L 9.382812 375.207031 L 9.378906 308.992188 C 9.4375 279.820312 33.226562 256.082031 62.40625 256.082031 L 64.71875 256.082031 C 70.011719 256.082031 74.984375 254.019531 78.722656 250.273438 C 82.460938 246.527344 84.515625 241.550781 84.507812 236.257812 L 84.546875 187.613281 Z M 75.167969 187.605469 " fill-opacity="1" fill-rule="nonzero"/></g><g clip-path="url(#75477edf78)"><path fill="#c0c0c0" d="M 90.472656 187.589844 L 90.269531 236.472656 C 90.21875 250.390625 78.859375 261.710938 64.945312 261.710938 L 63.964844 261.710938 C 37.035156 261.710938 15.085938 283.617188 15.027344 310.542969 L 15.023438 375.207031 L 24.402344 375.207031 L 24.410156 310.550781 C 24.453125 288.796875 42.199219 271.089844 63.964844 271.089844 L 64.945312 271.089844 C 84.011719 271.089844 99.582031 255.578125 99.648438 236.511719 L 99.855469 187.628906 Z M 90.472656 187.589844 " fill-opacity="1" fill-rule="nonzero"/></g><g clip-path="url(#628f314ca1)"><path fill="#e7e7e7" d="M 114.644531 187.605469 L 105.265625 187.609375 L 105.277344 236.222656 C 105.3125 247.039062 101.136719 257.203125 93.511719 264.851562 C 85.890625 272.503906 75.742188 276.71875 64.941406 276.71875 C 45.902344 276.71875 30.363281 292.207031 30.300781 311.246094 L 30.203125 375.199219 L 39.582031 375.214844 L 39.679688 311.269531 C 39.726562 297.394531 51.058594 286.097656 64.941406 286.097656 C 78.253906 286.097656 90.761719 280.902344 100.160156 271.472656 C 109.554688 262.042969 114.703125 249.519531 114.65625 236.207031 Z M 114.644531 187.605469 " fill-opacity="1" fill-rule="nonzero"/></g><g clip-path="url(#459cf9cb8f)"><path fill="#ff8200" d="M 120.378906 187.605469 L 120.335938 236.273438 C 120.363281 251.085938 114.621094 265.007812 104.164062 275.480469 C 93.707031 285.957031 79.796875 291.726562 64.996094 291.726562 C 54.203125 291.726562 45.390625 300.507812 45.351562 311.296875 L 45.226562 375.199219 L 54.605469 375.214844 L 54.730469 311.324219 C 54.753906 305.691406 59.355469 301.105469 64.996094 301.105469 C 82.304688 301.105469 98.574219 294.359375 110.800781 282.109375 C 123.03125 269.855469 129.746094 253.578125 129.71875 236.269531 L 129.757812 187.613281 Z M 120.378906 187.605469 " fill-opacity="1" fill-rule="nonzero"/></g></svg>
